X:234
T:Ladies' 2nd Choice
R:barndance
C:Charlie Lennon
D:Frankie Goes to Town
Z:transcribed by Dave Marshall
M:C|
K:A
|: E2CE A,ECE | FDAF EFAB | cAeA fAeA | d2cd BGED |
C2B,C A,B,CD | EFAB cABc | d2fd c2ec |1 B2AB cBAF :|2 B2AB cAA2 |
|: f2~f2 dfaf | dcdf bagf | e2^de cea2 | EAAB cdea |
f2~f2 dfaf | dcdf afga | bgge deBG |1 B2ed cAA2 :|2 B2ed cBAF |
